packages/assets/static/images/icons/bold/traffic-signal--bold.svg

<svg width="24" height="24" viewBox="0 0 24 24" xmlns="http://www.w3.org/2000/svg">
<path d="M20.2499 13.125H19.1249V7.875H20.2499C20.5482 7.875 20.8344 7.75647 21.0454 7.5455C21.2564 7.33452 21.3749 7.04837 21.3749 6.75C21.3749 6.45163 21.2564 6.16548 21.0454 5.9545C20.8344 5.74353 20.5482 5.625 20.2499 5.625H19.1249V3.75C19.1249 3.25272 18.9273 2.77581 18.5757 2.42417C18.2241 2.07254 17.7472 1.875 17.2499 1.875H6.74988C6.2526 1.875 5.77568 2.07254 5.42405 2.42417C5.07242 2.77581 4.87488 3.25272 4.87488 3.75V5.625H3.74988C3.45151 5.625 3.16536 5.74353 2.95438 5.9545C2.7434 6.16548 2.62488 6.45163 2.62488 6.75C2.62488 7.04837 2.7434 7.33452 2.95438 7.5455C3.16536 7.75647 3.45151 7.875 3.74988 7.875H4.87488V13.125H3.74988C3.45151 13.125 3.16536 13.2435 2.95438 13.4545C2.7434 13.6655 2.62488 13.9516 2.62488 14.25C2.62488 14.5484 2.7434 14.8345 2.95438 15.0455C3.16536 15.2565 3.45151 15.375 3.74988 15.375H4.87488V20.25C4.87488 20.7473 5.07242 21.2242 5.42405 21.5758C5.77568 21.9275 6.2526 22.125 6.74988 22.125H17.2499C17.7472 22.125 18.2241 21.9275 18.5757 21.5758C18.9273 21.2242 19.1249 20.7473 19.1249 20.25V15.375H20.2499C20.5482 15.375 20.8344 15.2565 21.0454 15.0455C21.2564 14.8345 21.3749 14.5484 21.3749 14.25C21.3749 13.9516 21.2564 13.6655 21.0454 13.4545C20.8344 13.2435 20.5482 13.125 20.2499 13.125ZM16.8749 19.875H7.12488V4.125H16.8749V19.875ZM11.9999 11.25C12.5932 11.25 13.1732 11.0741 13.6666 10.7444C14.1599 10.4148 14.5445 9.94623 14.7715 9.39805C14.9986 8.84987 15.058 8.24667 14.9422 7.66473C14.8265 7.08279 14.5408 6.54824 14.1212 6.12868C13.7016 5.70912 13.1671 5.4234 12.5851 5.30764C12.0032 5.19189 11.4 5.2513 10.8518 5.47836C10.3036 5.70542 9.83511 6.08994 9.50547 6.58329C9.17583 7.07664 8.99988 7.65666 8.99988 8.25C8.99988 9.04565 9.31595 9.80871 9.87856 10.3713C10.4412 10.9339 11.2042 11.25 11.9999 11.25ZM11.9999 7.5C12.1482 7.5 12.2932 7.54399 12.4166 7.6264C12.5399 7.70881 12.636 7.82594 12.6928 7.96299C12.7496 8.10003 12.7644 8.25083 12.7355 8.39632C12.7065 8.5418 12.6351 8.67544 12.5302 8.78033C12.4253 8.88522 12.2917 8.95665 12.1462 8.98559C12.0007 9.01453 11.8499 8.99968 11.7129 8.94291C11.5758 8.88614 11.4587 8.79001 11.3763 8.66668C11.2939 8.54334 11.2499 8.39834 11.2499 8.25C11.2499 8.05109 11.3289 7.86032 11.4695 7.71967C11.6102 7.57902 11.801 7.5 11.9999 7.5ZM11.9999 18.75C12.5932 18.75 13.1732 18.5741 13.6666 18.2444C14.1599 17.9148 14.5445 17.4462 14.7715 16.8981C14.9986 16.3499 15.058 15.7467 14.9422 15.1647C14.8265 14.5828 14.5408 14.0482 14.1212 13.6287C13.7016 13.2091 13.1671 12.9234 12.5851 12.8076C12.0032 12.6919 11.4 12.7513 10.8518 12.9784C10.3036 13.2054 9.83511 13.5899 9.50547 14.0833C9.17583 14.5766 8.99988 15.1567 8.99988 15.75C8.99988 16.5456 9.31595 17.3087 9.87856 17.8713C10.4412 18.4339 11.2042 18.75 11.9999 18.75ZM11.9999 15C12.1482 15 12.2932 15.044 12.4166 15.1264C12.5399 15.2088 12.636 15.3259 12.6928 15.463C12.7496 15.6 12.7644 15.7508 12.7355 15.8963C12.7065 16.0418 12.6351 16.1754 12.5302 16.2803C12.4253 16.3852 12.2917 16.4566 12.1462 16.4856C12.0007 16.5145 11.8499 16.4997 11.7129 16.4429C11.5758 16.3861 11.4587 16.29 11.3763 16.1667C11.2939 16.0433 11.2499 15.8983 11.2499 15.75C11.2499 15.5511 11.3289 15.3603 11.4695 15.2197C11.6102 15.079 11.801 15 11.9999 15Z"/>
</svg>

<svg viewBox="0 0 24 24" xmlns="http://www.w3.org/2000/svg" aria-hidden="true" fill="currentColor"><path d="M20.25 13.125h-1.125v-5.25h1.125a1.125 1.125 0 0 0 0-2.25h-1.125V3.75a1.875 1.875 0 0 0-1.875-1.875H6.75A1.875 1.875 0 0 0 4.875 3.75v1.875H3.75a1.125 1.125 0 0 0 0 2.25h1.125v5.25H3.75a1.125 1.125 0 1 0 0 2.25h1.125v4.875a1.875 1.875 0 0 0 1.875 1.875h10.5a1.875 1.875 0 0 0 1.875-1.875v-4.875h1.125a1.125 1.125 0 0 0 0-2.25m-3.375 6.75h-9.75V4.125h9.75zM12 11.25a3 3 0 1 0 0-6 3 3 0 0 0 0 6m0-3.75A.75.75 0 1 1 12 9a.75.75 0 0 1 0-1.5m0 11.25a3 3 0 1 0 0-6 3 3 0 0 0 0 6M12 15a.75.75 0 1 1 0 1.5.75.75 0 0 1 0-1.5"/></svg>
